-----BEGIN PGP PUBLIC KEY BLOCK-----

mQINBGBdBxkBEACsIPXHQ2LiFrBLGkffVfc+UbkLz6YeSG2DIVJpUgJfk13ohDyQ
zR5+ZxwSVgy1kdaG3eyBkyEq6SRuZ1oFKzVvyIuH+1RqIsw7Lj/HE1NjqGUE3kVl
EIww9Un882/brFszWWpAdmfQwOb8zx4o6Q2ohymhelsaEb70R+1VptulVMZt4qSS
uXtQl3bJYadOLBBNZjVlX66z6ftm8hdwKPZ77frzWdzE/jdcgCXAtq4LJiOhTQAB
IGclY0nj1aOcn9g2CnDHBM/am9MIQfLkrul+cfxB5fjEreqU+SNrw9ahSbdXPJyb
edU0bH8CG6yPB2Vcjg6d5Rnj7rC+Tg36lwW4wiwCT76w+TP7pDDMcGaG2j1faFI5
hB8NghTEoMamXNDRIHi99Fab2vMfbYhN/z3uYuRTNfaLsbBcnZ7F2u+8EnjgJ2dy
aBzKjFbIJJYR8asrGHMynqW7ZGPj8W9kU1bLBktoPaW/1kUSSvJnEWTMpbiNwoMk
CNVr1Zm6zHzgjMdmggWSl915Ls8pk9Xo3pkONVmTVUV/i9VLAGQLZeywxUUoWHbX
NfWlhEZCfmY8lZYYpOPQSGpMevhXaomSGYNld/S/cdXgLFC8HPAduxum4kNTvDVa
tYc0Cmn1vb8JER9Q4gL3KhRw3yXRhUatzxreu5VXDdf5Sr9fnWIrBV2YAQARAQAB
tC9BbnNpYmxlIEdpdEh1YiBBY3Rpb25zIDxhbnNpYmxlLWdoYUByZWRoYXQuY29t
PokCTgQTAQoAOBYhBEaXVJ4Sh7xqGkgbmN5v4fHH2/AEBQJgXQcZAhsDBQsJCAcC
BhUKCQgLAgQWAgMBAh4BAheAAAoJEN5v4fHH2/AEYKYP/2w7onl4Kpd66gFGV+C5
i1hi5n8AynENzQoU9JjuKssAsqQbcdPWVu4pVwcVlx8Mw22pFtID3OMkBA+CIXJL
JgDqgHxOl83n8NFWm8CynZakaxUwMcQD2bD5du3ciLDXtZhQ5bW2V76xZ2eqv6lX
aax08SmzH/rcNGWJ08UzEnVWmg4PggC+b+y2ycyKOMVTfEBn1nlWWJXytnFD2/It
scKWEIfk21nI+GsfhdGnx5mrfm6GTXk5cOrlm8vNwUEDGu2j+DamiFeSvFjIAD7e
1FydArTY+hYXeCqKrVJ0H8zW2/lbLwZgbN1oDEjv0pU+6yXjqs7i0kTCTjfC4yQg
S9XmX3NB2Vd+M6SOeT1WLas8UAeTHdK1G38s02OIEctbGvdvJgnPgLKXuZNXkKv5
TZK3g3D8qqaa1I4r1dhQtmD41wcinwQ+s8C8JTecy2uh7XLYl3xt2t7OAYF0hBZ/
0eS12s2bg1why83bHIGthxKg3GHGjp+gmZYwxxIgB9RPhzN4WB/JPQ2htHTLJafA
2+yH/o967O+sVR3jYhZMyqt3xK3i4wxKSpqZM6Dq+GV80mtN54sNpEl2bjEEhzaZ
cqN8Ix10rmbu4fQTKlSpY5QM1FRt0ZqoRfuY0+Djx4FMuuYUU1TXHGnxvSZ1ITii
q+Aak1Ruu/Fjex529gtnXTPouQINBGLIS1sBEACuzW6kmfeJrMEXiqELEQEMxSey
LP/oR5qw3Ei4n1LqNTzwbuT5+GrdEMe6HnsrGCfkQrrN8bmuCCZUlBe0pXGk0LDY
xLPP5u0m6l8TM4URb/bPEn4y/ms4nGQiitnEnBk1s/rOPw57gtK9kF2Map9FMxIh
vcahLnHJpvbzwtOuyZ4jIhIWMH+3UYmb/Uz1xi6VLvibMDfGOyLF4fa1YCEBVGgU
Yng0XhChIjGNzn9k9ZU6+rIwLIMvw5Jojf6f4N9eSINEuNsx9zUZTsFY7vgPFyVd
MJP7ldAUeRInq3TyYxEBXkLBYPjbXBMUrws5nP9YDYR59POmldwJppqqWBAbCFUC
v7fKQAkGCbG2do7N6OsIIZrS6HLpcOKRJh4TL82BaGfm5cWAWoaUgpA8SxRvjlJL
J8BfciJUKQhOxRYxABSKfEa/NrpuKDHNua5jHrblf0MT4GlVXUE9Nf049TuTZN+h
2Peo/ju+ifSqcjVg6dKmo4CXchv2Eikx7uB5eTkYBtZJEzSbBz0F2VWYH2WrxgjD
PR3uD9uXmPslyuMjAzL0aqtYl2Um7swAaXOlpBliVJz8hVA4m9ReTJmgfRY1TJ3V
bJYG9Bu6Zaca8hfcScshbSXce6qV2nTfu0uRj6o/lt88af3DOei4YGfVxeY+gKeY
Z4DYpS5zD2i/z0jKmQARAQABiQRsBBgBCgAgFiEERpdUnhKHvGoaSBuY3m/h8cfb
8AQFAmLIS1sCGwICQAkQ3m/h8cfb8ATBdCAEGQEKAB0WIQRbEpjVhmmRYMm2a0Ge
gSHWP8DanwUCYshLWwAKCRCegSHWP8Dan0osD/9GS28XMSgoMx5O04DjbGn+4O5y
gIAU6pXLLJPckb5PeZDD7WZ/3SGAPoAqG1cDDkg6132+vZAKP/WEQPkz+9HG6zu2
882O0JZNgzpR8fdIuczJnDyUvN/BwGfX6aksL4GaHBdRHmfKdhalZnugQITkXT2d
CGs4B93gScxfL+EjYEiRXqz7vM3v+o2EsVwtIjAbw4ERNp115DFYBoIZb9ExCNq2
wT2CGYPGg+HP+w8Ve5yyD2vN9ups7TuLYQ+BS9WpUv5xPmzxXDy8WapJ/17Gmvt0
+3mPYr9CjhvOVcMJ+5+JPIIH+N4Kzt9V6JJ2pO6lbveHW7yqEJ3QKkK4biU49b53
Girh4rpL+pG48bmvkShQ6hPKwdoBIcH3j8lJigckYnR74vn8fmoZRhNQzzbJJB2f
j2bjLHJOsmlNYmtZF4AFIjtHeDP3igokcO8jKX8CXqPk5xVsmtXQMpN6JUkSoG2Z
/2W/bE+gNqBMg325+BbggPVUtuSm5ZwA1yazosNoVRaWrz+UN4REX7b9qgkVa+b6
soUu3ckNhcng8VzQresTnIRIGeggOZmvMzwn/8FFPwaXuIKiJ6Cd4oLM825BJGhF
8jAzIh7EZ3s1zdPvJw8yKEcTGDzzPA2NRgbEAIbUFYLeIXiTmZ/eqyiQlDG78mWd
jHam6stI9LvDfvwQm26cD/9UCijbD+UW+AoxtbuLoUwWjfR4iZXyV//zmivdMol7
G5aaSexvOWXwD4sRU5qpnrTpkN2q3ASSQn5e53o6yZkXGjhHqTJpncVlu387ZwHr
4FGmITC3LjDDvHLCDHdjKcO4eLsNPCfpHUksPue+uaR6grw08m9Mi4yKSHpvOOxQ
oSJpHRJFjTOug3yZZEpjpJUSJ3F5iyuw8oJHQW1bi+zokx1EdyeP/kq6eBEKUuH9
LjIaYmKGceEaQTdT36g4iZO2vXwnywR80udTM8D0VfHC9E4qrUw7wMjgdwgRFMbj
5uW8QRep1ShjvtJXfmZKUdK5LX5vPLzMeEDAmt187zJv71UeWjIuH7Cb+QXIZ/Py
mslPL8yh10i6tGnJP+uDUfOw3HjukbUer6J6EbuzBVAGyygNNY0McoOuSo9/jfrD
mipmgLZl8txW7HPWmCMZlvWGXrKHqDfOvweHQQ6P6REc5+6u8kAPqIQD8pu7ws/n
SVCtQdYSwBTUchef31oEF+ZbX4CQrnpM4M2MlHNsptKeY3aodEdHyg7ggrZBP+H6
9c73vUa05jC2M+KMGRVQ8yXPCm42ZegUY9uEXLsKAkuOkhBLxHS1ty5Q/3ghWDHS
vZRuI3NIdKp/kA7xJE48I9bX2Q6AMuR7qIH0DjSL3gvmFWur7oa0uXCeYR3WQJi5
BrkCDQRgXQpZARAA7ApsqMaI6qUYmRmphPXQro62+nV9JEO0IKN8nUx8HreZioU8
x8F6a2GbV10gGDqzqFZYgDu8kaAcPyhnKcOhWaIGQUjOq/7iCwVRJu/6FqPd6ziQ
NESz5CKEcSxCtnFS0Y49s5P87+c0oeH6xbMNaBV77grkR+I9HQkLEh/P4JFbL/bx
tqmmXOpIe+W6vSr4vKe/7d4kw26SFauYNPB49srR6g0jFuBTymuZrdOu+4NHU8+y
x2ZZVTXUY0fc6HhKAaSQhoF63UdrrQCS8EZ/V9k+mEXnphpwDgeCS3VdYDLS5E9D
Vh3iEq635H4gVfgc9bOhckoVjanbUmVxFga5zEJ3afXOlQvnZ/rwC/lozrOUgbIy
SdhvoDp4UmK3Ex2f0vU+YmS1xAxggd7TIRqzvivfCbmgnBtDs408Hhg2moFhVTQb
SUBy8huGO507qlM2n5OuFIiPZf1YUqliI5tGvOn9lgT4ze7RoWExe8IanIgboTNe
LJvbKEsKMVTjvttEywm4VwfViLZ289GOpT2cotBjuS/U5Ua/7cOgKARMzdQavK12
c0o32OnMuH8C1PJv+9VbjD6Bc+Nq5QV9ZqPN77AJFcnDOlry46pWHlmZ+vjjJSpF
++7bnqPuGjepLqw2oiEaSvBEEBBoyeb2mOwd7cmOoloOjdBL5ZyBdViXYQ0AEQEA
AYkEbAQYAQoAIBYhBEaXVJ4Sh7xqGkgbmN5v4fHH2/AEBQJgXQpZAhsCAkAJEN5v
4fHH2/AEwXQgBBkBCgAdFiEEuuD+y4psRES0pM6Z0F5gNPi1jBYFAmBdClkACgkQ
0F5gNPi1jBaFshAApxQAEK0Dt5Wknhy5Z8Ltt5D5W9F2ioRistZ4VVKgbKKS9GE3
cYm8Eo68RfVRyRhgL4Jdg3Mbo6MhKcF48DAhlkJ4xC02JY6/xB+eG9WzXH/SbFpb
pbzzXNmbtTu+lnqI615m8SOd1+NpFhYyGHf/yeWN4JVWqInuarAcc6O2PaSTae1E
xrDG1p81iIDmmbae7bG/p7Hg7x+9tFXJNdnu5cnzWFbsOMhoMsI2age8gsfd7x/J
FdUYMaKZmrE0U0OO9fVVu9nLnJ+KDkR/to7ziM2KpmckNmeVyWNjBj+6JDEI9bbO
/SAI7qbuVWeIzNBMusNzrdHK2TJrdL3L9x0QVMsA8Pbrh3LcQ57AD+WXgDPVBJUy
jB/CQ97S55Pwo2gTA/PGtN58NTS7uj+J6Kc5fOYNHVNxSql284MahJ34qW3eyAbI
tqEeiWOAfbIYC2pN6QJEVON0TkgqRJR7THiV9KG+U6bDrbwNqBeYbO2+LNed72tS
+Wpz/NtAJ4ciXFOHfGgT1xJV9v90xSxjzXOQOKwQntE1MtRiaUApfxKYUHQMVDHB
dWHJcMEher93gh+b/mPvnYNH7GFWjpekIHzOOU/3m0U/u3aY5QRD8nz3uKbsJmq2
X376u8Sff4Z4ZyHktegpD/7/+pdLE/bEaYIacipYI/QXlbzMI1xFUtytI4H4Nw//
boaxAs10c1//4QH4Hoec3xE0OyWU6uA2N0nzKmVMcYEOX/VTB4M1DQOWx4S8qnk+
LKEt9tCj7qnkt0EK9ApoL3GxOH9YkCoaUpJsTIE+tRkkdk9M8IG7nFzy0IltiFL1
vl5Ifci7V2X3UNuuft6lKIjadwgIm9PZ0BkILs8c3VDXqZ5asEtpmoBDMYNAjjkn
U2BzTgqStSZq2bmag/wV8RP9C/nzB1JICwILG9+QH8mSqQ2prwxWcICv1XYoV4Bl
vooH3JvIjeDHuJwOMC0NE2KSlMeWSouMu5y8yn99e/fGfYgUNS0sFY68gKLsSs17
iyxYySjarV76RRkMLoKGG555uM7C+FsWB3QVEeZBFkgTNgs3OHS2DcnUJyuVybLa
Ou6N2Xw6o9T2Ma08DlXxrA9ChAg2BsHjVxo6eck/icNaix7yHOELrSsj9mHwnaFp
AkQcrQhwSoQMLlupyDwSqZR92P/3qxLo2ynFmYOdIyG0gq6T9uw+tIRc8wHNfTT6
Fu3ekJ7eYk3dXKrAOn455EXE7ntHEiy7ZwnuGJyF1yAZKPmwcAajA3qQLpofBtEq
hK85B2HokaYJk83PsizmgZRrZR+4qsmePk836dXnkI3AzDV2kik8FbWUp3aUAJBA
IV+2vnLScwHPyCMicBsek+ud5zCOteT6sGiQTJXgzGe5Ag0EYF0HGQEQAOMnZQd/
NEEvmHGZobEipwXNSsENk6FsszrzzXEbkABKijlyg0eBITWzaHE/fyO1cjrdR5n6
j8EEH/fPB9PX7s/MY/HRgyq6jQCxG16Fl6FoxVsDz2DIk4a1ftIJl/JD/6ST7+TD
gPa40J1fsk9XcWVPTpb9AKWuGUUW9g2EshBj4THUsmPX4DZaVZwOBXLix7QuD0sh
QeYRJ24WkiQRCZXcYMNnGFXFjVQSZLsCyu+kBmkIR4PULtiwGQJpJ0j9mEk+XjAT
cB4fUkKLk3m4k7Q8STJGnNoGAJwQV+NXwOgH3JoTlUO9VpL+lxk4XTXcU3cyV84t
KtyQCzJe/tlAUtYaVmkHZDGwEyh/HS92XnWlRYg3TT81GpCDCFnc2wdVzZDtzH3G
1PNZ2OmlkWNj+9oWlLf071/DRsZJKPcUe96Yv2yLNElapl3qXquOuVArzw5aNR5W
iOibPmgxTM9eoP7oqoI1kq9S7w4GZYHf/zOXjpFd+e8M7jGGenzUG3LFoPhUGYDY
TvkKIy3XqCAm6At/jKDa7OUxNzCZaQHEPH++sZSh9zcldBTxMy6NR35F7lhxrZV+
vkXrhvvj0eQfv/NgKylSJEEf2AzejJRwOB+L4iFjxe57dUFpsR741sND1FPWk9yQ
pmsFlZKW3SJBIDdabQZdvLhGq/uaB9BXGl2jABEBAAGJAjYEGAEKACAWIQRGl1Se
Eoe8ahpIG5jeb+Hxx9vwBAUCYF0HGQIbDAAKCRDeb+Hxx9vwBMuzD/wNOc60l1UR
tnIDWvl2sv+DHW+W+JhoiUoSEcBBe8wf/RC+WKtIrnv15ZNHpJu7If4IQQp5sWs+
ccsPQooMxIG+Qly8jAyWtg4OythR+giFb1Q3luFq7p6DMrsUZWwFQF4TRy3A3tj0
MH65N+wH0aLUYsDDazG1yixRJ9Eg1iwgDer9NGjJA/f0G2Khx/j4mqP7jL+B0S0q
vjcj97tAB/OwUNft8L9dUYGiBweBNICM7ROv+rfdcYQ93hunbOBrIIYQXV/AvQLC
IyedcU4w9hQdc3j729zAWrZ2oY24zj/Hu231FVQBqL0A2zKBStKQ2Hsb7JQ/n420
sEMdK1+b/HCnluboCba+uKq5jXx0GoCNFsFlBbCqlh70GwXY5FY6l9U+liBc9d7D
7qV69T1PVJIAMxIN7XOpVuJo9g4EXBqqghE4cfWCq0eATLhbLmf/5iXU/bVHIHCZ
06zwsuIHk+qz5rm6WCJQsej2ZIkIBKr3FemQwo8+5aluhw7SDXMnYwih/h8m/GS1
lD7n2/8PWu4Fq6f6SHXIGHGpuVMQREL9+ZrS0pwSCsAbOTTk/0fDRCVJXxzXggl8
Rf8CQ7KVIdfBAQBxm3F4mZYzjCgt/Fx304cZCPkk+D32zYByN3D0CrTyhL5GZOLZ
WYCbQ4E4BSAImEgVM09bzc0s8gNI8+0PBQ==
=GMeK
-----END PGP PUBLIC KEY BLOCK-----
